img/telegram.svg

<svg width="19" height="18" viewBox="0 0 19 18" fill="none" xmlns="http://www.w3.org/2000/svg">
<path d="M5.22158 11.7279L10.7017 6.24784C11.3851 5.56443 12.4931 5.56443 13.1765 6.24784V6.24784C13.86 6.93126 13.86 8.0393 13.1765 8.72272L7.69646 14.2028C6.32962 15.5696 4.11354 15.5696 2.74671 14.2028V14.2028V14.2028C1.37987 12.836 1.37987 10.6199 2.74671 9.25305L9.28745 2.71231C11.3377 0.662058 14.6618 0.662058 16.7121 2.71231V2.71231C18.7623 4.76256 18.7623 8.08668 16.7121 10.1369L10.1713 16.6777" stroke="#686B6E" stroke-width="1.5" stroke-linecap="round" stroke-linejoin="round"/>
</svg>

<svg width="19" height="18" fill="none" xmlns="http://www.w3.org/2000/svg"><path d="m5.222 11.728 5.48-5.48a1.75 1.75 0 0 1 2.475 0v0a1.75 1.75 0 0 1 0 2.475l-5.48 5.48a3.5 3.5 0 0 1-4.95 0v0a3.5 3.5 0 0 1 0-4.95l6.54-6.54a5.25 5.25 0 0 1 7.425 0v0a5.25 5.25 0 0 1 0 7.424l-6.54 6.54" stroke="#686B6E" stroke-width="1.5" stroke-linecap="round" stroke-linejoin="round"/></svg>
